svg/u1f940.svg

<svg viewBox="0 0 128 128" xmlns="http://www.w3.org/2000/svg">
  <path d="M85.84,33.6c0,0-9.44,3.93-9.18,5.37C76.92,40.41,75.61,61,75.61,61l1.44,3.41c0,0,0.91,2.98,3.42,4 c2.91,1.18,4.77-0.61,4.77-0.61l4.97-4.35l7.56,0.37l6.81-6.69c0,0,4.11,0.22,6.5-3.5c2.35-3.64,1.12-7.87,1.12-7.87 S91.03,30.44,90.53,31.19C90.03,31.94,85.84,33.6,85.84,33.6z" fill="#96030D"/>
  <path d="M104.95,51.59c-0.81,0.84-14.72,2.43-14.72,2.43l-0.16,3.35c0,0,1.87,1.95,4.47,2.03 c2.25,0.07,4.55-1.16,4.55-0.88c0,0.28-1.4,2.99-3.83,3.35c-2.43,0.36-5.15-0.64-5.23,0.12s-0.36,2.79-0.36,2.79s3.26,1.75,7.7,0.52 c4.19-1.16,6.22-3.87,7.06-6.38C105.81,54.79,105.47,51.05,104.95,51.59z" fill="#F7153A"/>
  <path d="M83.53,50.39c-0.54,1.46-0.2,3.15,0.96,4.19c1.14,1.02,2.79,1.68,2.79,2.03 c0,0.36-0.61,3.36-1.12,5.5c-0.76,3.23-2.75,4.63-2.39,5.86c0.24,0.84,1.78,1.66,3.99,0.6c2.07-1,3.51-2.43,3.95-7.34 c0.22-2.43,0.28-4.39,0.28-4.39s3.15,0.16,7.06-0.88c3.91-1.04,6.78-3.44,6.46-5.38c-0.34-2.06-4.4-1.08-7.9-0.16 c-2.77,0.73-6.18,0.92-8.58,0.24S84.37,48.12,83.53,50.39z" fill="#CC0B1E"/>
  <path d="M67.27,26.93c0,0,0.21,4,0.91,8.05c0.8,4.64,1.83,9.54,1.4,13.53c-0.53,4.86-1.95,12.17,2.07,15.47 c3.92,3.22,5.86,1.38,5.86,1.38s-0.33-3.4,0.79-5.38s2.79-3.8,3.67-8.92c0.95-5.51-0.57-8.85-0.14-9.39 c0.43-0.54,1.27-0.03,2.5,0.62c1.23,0.64,6.99,4.2,11.65,5.3c5.58,1.32,13.9,0.5,16.8-0.79c3.27-1.45,3.96-4.73,2.33-7.5 c-1.77-2.99-5.78-3.61-8.31-6c-1.77-1.67-7.52-6.75-10.95-10.88c-3.44-4.13-5.82-4.93-5.82-4.93s-14.65-3.97-16.16-1.13 S67.27,26.93,67.27,26.93z" fill="#CD0E1E"/>
  <path d="M69.8,13.98c0,0,0.01,3.57-3.47,4.83c-2.45,0.88-5.1,0.27-5.51,0.61c-0.84,0.7,0.07,2.93,2.38,3.54 c1.6,0.42,3.74,0.14,3.74,0.14s-0.95,2.11-2.24,2.93s-2.99,1.2-2.86,1.77c0.57,2.42,5.02,2.05,7.55,0.92 c5.65-2.52,6.31-6.03,6.31-6.03s0.9,0.58,2.12,2.34c1.22,1.77,4.39,7.19,5.58,5.75c1.36-1.63,1.29-5.37,0.54-7.82 c-0.76-2.47-1.5-3.74-1.5-3.74s2.75,1.45,6.46,0.82c4.53-0.77,7.07-4.56,5.44-7.35c-0.61-1.04-2.04,0.95-5.92,1.43 c-1.35,0.17-3.55-0.75-3.55-0.75s1.8-1.49,1.8-5.05c0-2.73-2.46-5.07-4.45-4.71c-0.48,0.09,0.31,3.84-1.88,5.9 c-1.16,1.09-3.16,1.47-6.02,0.66c-1.08-0.31-4.95-1.43-4.95-1.43S69.54,11.45,69.8,13.98z" fill="#738136"/>
  <path d="M103.36,69.73c0.33,0.99,1.15,4.15,0.93,8.99c-0.18,3.87-3.12,6.17-3.71,7.97 c-0.45,1.37,9.86,2.35,11.27-6.03c1.1-6.57-2.51-9.8-4.13-11.03C105.4,67.87,103.02,68.71,103.36,69.73z" fill="#CD0E1E"/>
  <path d="M85.55,96.06c-1.95,0.13-2.04,4.54-1.11,7.51s4.54,10.2,11.4,11.78c6.86,1.58,9.09-0.46,9.18-1.58 s-3.43-1.76-4.45-4.36c-0.61-1.54-1.3-4.27-3.71-6.68c-2.41-2.41-6.12-2.5-7.88-3.71C87.22,97.82,86.95,95.97,85.55,96.06z" fill="#CD0E1E"/>
  <path d="M26.77,54.61c0,0-9.69-1.25-13.54,8.25c-3.34,8.25-0.74,14,0.93,18.27c1.13,2.9,2.31,7.92,3.06,8.07 c0.93,0.19,6.12-5.38,10.2-10.2c4.08-4.82,7.14-11.13,3.71-18.45C29.17,56.38,26.77,54.61,26.77,54.61z" fill="#748138"/>
  <path d="M50.88,71.95c0,0,2.04-4.17,5.38-4.27c2.79-0.08,4.36,2.04,5.1,3.71c0.74,1.67,0.56,2.5,0,4.27 s-1.68,4.8-0.56,8.53c1.11,3.71,4.91,8.16,7.32,10.29c2.41,2.13,7.97,6.4,8.81,6.12c0.83-0.28,1.21-9.74,0.74-15.02 c-0.46-5.29-2.5-9.83-6.12-11.87c-3.62-2.04-4.08-1.58-5.01-2.69c-0.93-1.11-2.41-7.05-9.27-8.16c-4.56-0.74-8.81,2.23-8.81,2.69 C48.47,66.02,50.88,71.95,50.88,71.95z" fill="#748138"/>
  <path d="M77.38,12.64c-0.19-0.28-7.51-10.38-20.95-8.9S38.9,17.65,38.53,27.66 c-0.29,7.8,0.09,16.23,1.67,23.64c1.58,7.42,3.99,17.62,5.84,31.62c1.39,10.49,1.5,19.52,1.11,23.64 c-0.56,5.93-2.32,15.48-2.32,15.48s1.11,2.41,4.91,2.32c2.42-0.06,3.15-1.76,3.15-1.76s1.95-9.55,1.58-25.22s-4.54-34.86-6.49-42.65 s-5.47-28.09-0.37-37.83s16.23-7.05,19.47-5.01s5.1,4.27,5.1,4.27L77.38,12.64z" fill="#748138"/>
  <path d="M23.17,56.88c-0.09-0.28,1.28-6.99,6.75-11.07s10.94-1.3,10.94-1.3l1.58,8.34c0,0-3.25-5.38-8.25-2.6 c-5.91,3.28-5.71,8.39-5.71,8.39L23.17,56.88z" fill="#748138"/>
</svg>

<svg viewBox="0 0 128 128" xmlns="http://www.w3.org/2000/svg">
  <defs/>
  <path d="M85.84,33.6 C85.84,33.6 76.4,37.53 76.66,38.97 C76.92,40.41 75.61,61 75.61,61 L77.05,64.41 C77.05,64.41 77.96,67.39 80.47,68.41 C83.38,69.59 85.24,67.8 85.24,67.8 L90.21,63.45 L97.77,63.82 L104.58,57.13 C104.58,57.13 108.69,57.35 111.08,53.63 C113.43,49.99 112.2,45.76 112.2,45.76 C112.2,45.76 91.03,30.44 90.53,31.19 C90.03,31.94 85.84,33.6 85.84,33.6 Z" fill="#96030D"/>
  <path d="M104.95,51.59 C104.14,52.43 90.23,54.02 90.23,54.02 L90.07,57.37 C90.07,57.37 91.94,59.32 94.54,59.4 C96.79,59.47 99.09,58.24 99.09,58.52 C99.09,58.8 97.69,61.51 95.26,61.87 C92.83,62.23 90.11,61.23 90.03,61.99 C89.95,62.75 89.67,64.78 89.67,64.78 C89.67,64.78 92.93,66.53 97.37,65.3 C101.56,64.14 103.59,61.43 104.43,58.92 C105.81,54.79 105.47,51.05 104.95,51.59 Z" fill="#F7153A"/>
  <path d="M83.53,50.39 C82.99,51.85 83.33,53.54 84.49,54.58 C85.63,55.6 87.28,56.26 87.28,56.61 C87.28,56.97 86.67,59.97 86.16,62.11 C85.4,65.34 83.41,66.74 83.77,67.97 C84.01,68.81 85.55,69.63 87.76,68.57 C89.83,67.57 91.27,66.14 91.71,61.23 C91.93,58.8 91.99,56.84 91.99,56.84 C91.99,56.84 95.14,57 99.05,55.96 C102.96,54.92 105.83,52.52 105.51,50.58 C105.17,48.52 101.11,49.5 97.61,50.42 C94.84,51.15 91.43,51.34 89.03,50.66 C86.63,49.98 84.37,48.12 83.53,50.39 Z" fill="#CC0B1E"/>
  <path d="M67.27,26.93 C67.27,26.93 67.48,30.93 68.18,34.98 C68.98,39.62 70.01,44.52 69.58,48.51 C69.05,53.37 67.63,60.68 71.65,63.98 C75.57,67.2 77.51,65.36 77.51,65.36 C77.51,65.36 77.18,61.96 78.3,59.98 C79.42,58 81.09,56.18 81.97,51.06 C82.92,45.55 81.4,42.21 81.83,41.67 C82.26,41.13 83.1,41.64 84.33,42.29 C85.56,42.93 91.32,46.49 95.98,47.59 C101.56,48.91 109.88,48.09 112.78,46.8 C116.05,45.35 116.74,42.07 115.11,39.3 C113.34,36.31 109.33,35.69 106.8,33.3 C105.03,31.63 99.28,26.55 95.85,22.42 C92.41,18.29 90.03,17.49 90.03,17.49 C90.03,17.49 75.38,13.52 73.87,16.36 C72.36,19.2 67.27,26.93 67.27,26.93 Z" fill="#CD0E1E"/>
  <path d="M69.8,13.98 C69.8,13.98 69.81,17.55 66.33,18.81 C63.88,19.69 61.23,19.08 60.82,19.42 C59.98,20.12 60.89,22.35 63.2,22.96 C64.8,23.38 66.94,23.1 66.94,23.1 C66.94,23.1 65.99,25.21 64.7,26.03 C63.41,26.85 61.71,27.23 61.84,27.8 C62.41,30.22 66.86,29.85 69.39,28.72 C75.04,26.2 75.7,22.69 75.7,22.69 C75.7,22.69 76.6,23.27 77.82,25.03 C79.04,26.8 82.21,32.22 83.4,30.78 C84.76,29.15 84.69,25.41 83.94,22.96 C83.18,20.49 82.44,19.22 82.44,19.22 C82.44,19.22 85.19,20.67 88.9,20.04 C93.43,19.27 95.97,15.48 94.34,12.69 C93.73,11.65 92.3,13.64 88.42,14.12 C87.07,14.29 84.87,13.37 84.87,13.37 C84.87,13.37 86.67,11.88 86.67,8.32 C86.67,5.59 84.21,3.25 82.22,3.61 C81.74,3.7 82.53,7.45 80.34,9.51 C79.18,10.6 77.18,10.98 74.32,10.17 C73.24,9.86 69.37,8.74 69.37,8.74 C69.37,8.74 69.54,11.45 69.8,13.98 Z" fill="#738136"/>
  <path d="M103.36,69.73 C103.69,70.72 104.51,73.88 104.29,78.72 C104.11,82.59 101.17,84.89 100.58,86.69 C100.13,88.06 110.44,89.04 111.85,80.66 C112.95,74.09 109.34,70.86 107.72,69.63 C105.4,67.87 103.02,68.71 103.36,69.73 Z" fill="#CD0E1E"/>
  <path d="M85.55,96.06 C83.6,96.19 83.51,100.6 84.44,103.57 C85.37,106.54 88.98,113.77 95.84,115.35 C102.7,116.93 104.93,114.89 105.02,113.77 C105.11,112.65 101.59,112.01 100.57,109.41 C99.96,107.87 99.27,105.14 96.86,102.73 C94.45,100.32 90.74,100.23 88.98,99.02 C87.22,97.82 86.95,95.97 85.55,96.06 Z" fill="#CD0E1E"/>
  <path d="M26.77,54.61 C26.77,54.61 17.08,53.36 13.23,62.86 C9.89,71.11 12.49,76.86 14.16,81.13 C15.29,84.03 16.47,89.05 17.22,89.2 C18.15,89.39 23.34,83.82 27.42,79 C31.5,74.18 34.56,67.87 31.13,60.55 C29.17,56.38 26.77,54.61 26.77,54.61 Z" fill="#748138"/>
  <path d="M50.88,71.95 C50.88,71.95 52.92,67.78 56.26,67.68 C59.05,67.6 60.62,69.72 61.36,71.39 C62.1,73.06 61.92,73.89 61.36,75.66 C60.8,77.43 59.68,80.46 60.8,84.19 C61.91,87.9 65.71,92.35 68.12,94.48 C70.53,96.61 76.09,100.88 76.93,100.6 C77.76,100.32 78.14,90.86 77.67,85.58 C77.21,80.29 75.17,75.75 71.55,73.71 C67.93,71.67 67.47,72.13 66.54,71.02 C65.61,69.91 64.13,63.97 57.27,62.86 C52.71,62.12 48.46,65.09 48.46,65.55 C48.47,66.02 50.88,71.95 50.88,71.95 Z" fill="#748138"/>
  <path d="M77.38,12.64 C77.19,12.36 69.87,2.26 56.43,3.74 C42.99,5.22 38.9,17.65 38.53,27.66 C38.24,35.46 38.62,43.89 40.2,51.3 C41.78,58.72 44.19,68.92 46.04,82.92 C47.43,93.41 47.54,102.44 47.15,106.56 C46.59,112.49 44.83,122.04 44.83,122.04 C44.83,122.04 45.94,124.45 49.74,124.36 C52.16,124.3 52.89,122.6 52.89,122.6 C52.89,122.6 54.84,113.05 54.47,97.38 C54.1,81.71 49.93,62.52 47.98,54.73 C46.03,46.94 42.51,26.64 47.61,16.9 C52.71,7.16 63.84,9.85 67.08,11.89 C70.32,13.93 72.18,16.16 72.18,16.16 L77.38,12.64 Z" fill="#748138"/>
  <path d="M23.17,56.88 C23.08,56.6 24.45,49.89 29.92,45.81 C35.39,41.73 40.86,44.51 40.86,44.51 L42.44,52.85 C42.44,52.85 39.19,47.47 34.19,50.25 C28.28,53.53 28.48,58.64 28.48,58.64 L23.17,56.88 Z" fill="#748138"/>
</svg>
